exports/stratospheric-ozone-concentration_v1_850x600.svg

<svg xmlns="http://www.w3.org/2000/svg" version="1.1" style="background-color:#fff;-webkit-font-smoothing:antialiased" width="850" height="600" font-family="'Helvetica Neue',Helvetica,Arial,sans-serif" font-size="18" text-rendering="optimizeLegibility"><g class="ChartTab"><g class="HeaderView"><g opacity=".8" transform="matrix(.27 0 0 .27 778 15)"><a xmlns:xlink="http://www.w3.org/1999/xlink" xlink:href="https://ourworldindata.org" target="_blank"><g><path fill="#1B2543" d="M0 0h211.2v130.1H0z"/><path fill="#E63912" d="M0 112.2h211.2v17.9H0z"/><g><path fill="none" d="M1.2 12.3h210.2v99.2H1.2z"/><path fill="#FFF" d="M37.8 32.2c0 12.7-7.7 19.4-17.1 19.4-9.7 0-16.6-7.5-16.6-18.7 0-11.7 7.3-19.3 17.1-19.3 10.1.1 16.6 7.7 16.6 18.6zm-28.6.6c0 7.9 4.3 14.9 11.8 14.9 7.5 0 11.8-6.9 11.8-15.3 0-7.3-3.8-14.9-11.8-14.9-7.9 0-11.8 7.3-11.8 15.3zM62.7 43.8c0 2.7.1 5.1.2 7.2h-4.3l-.3-4.3h-.1c-1.3 2.1-4 4.9-8.8 4.9-4.2 0-9.1-2.3-9.1-11.6V24.6h4.8v14.6c0 5 1.5 8.4 5.9 8.4 3.2 0 5.5-2.2 6.3-4.4.3-.7.4-1.6.4-2.5V24.6h4.8v19.2zM67.3 32.8c0-3.1-.1-5.8-.2-8.2h4.2l.2 5.2h.2c1.2-3.5 4.1-5.8 7.3-5.8.5 0 .9.1 1.4.2v4.5c-.5-.1-1-.2-1.6-.2-3.4 0-5.8 2.6-6.5 6.2-.1.7-.2 1.4-.2 2.2V51h-4.8V32.8zM95.4 51L86 14.2h5l4.4 18.6c1.1 4.6 2.1 9.2 2.7 12.7h.1c.6-3.7 1.8-8 3-12.8l4.9-18.5h5l4.5 18.7c1 4.4 2 8.7 2.6 12.6h.1c.8-4 1.8-8.1 3-12.7l4.9-18.5h4.9L120.6 51h-5L111 31.9c-1.1-4.7-1.9-8.3-2.4-12h-.1c-.7 3.7-1.5 7.3-2.8 12L100.4 51h-5zM154.9 37.6c0 9.8-6.8 14-13.2 14-7.2 0-12.7-5.2-12.7-13.6 0-8.8 5.8-14 13.1-14 7.7 0 12.8 5.5 12.8 13.6zm-21 .3c0 5.8 3.3 10.1 8 10.1 4.6 0 8-4.3 8-10.3 0-4.5-2.2-10.1-7.9-10.1s-8.1 5.2-8.1 10.3zM158.2 32.8c0-3.1-.1-5.8-.2-8.2h4.2l.2 5.2h.2c1.2-3.5 4.1-5.8 7.3-5.8.5 0 .9.1 1.4.2v4.5c-.5-.1-1-.2-1.6-.2-3.4 0-5.8 2.6-6.5 6.2-.1.7-.2 1.4-.2 2.2V51h-4.8V32.8zM173.5 12.3h4.8V51h-4.8V12.3zM206.5 12.3v31.9c0 2.3.1 5 .2 6.8h-4.3l-.2-4.6h-.2c-1.5 2.9-4.7 5.2-9 5.2-6.4 0-11.3-5.4-11.3-13.4-.1-8.8 5.4-14.2 11.9-14.2 4 0 6.8 1.9 8 4h.1V12.3h4.8zm-4.8 23.1c0-.6-.1-1.4-.2-2a7 7 0 00-6.9-5.6c-5 0-7.9 4.4-7.9 10.2 0 5.3 2.6 9.8 7.8 9.8 3.2 0 6.2-2.1 7.1-5.7.2-.7.2-1.3.2-2.1v-4.6zM42.8 64c.1 1.6-1.1 2.9-3.1 2.9-1.7 0-2.9-1.3-2.9-2.9 0-1.7 1.3-3 3-3 1.9 0 3 1.3 3 3zm-5.4 33.8V71.4h4.8v26.4h-4.8zM47.5 78.6c0-2.7-.1-5-.2-7.1h4.3l.3 4.4h.1c1.3-2.5 4.4-5 8.8-5 3.7 0 9.4 2.2 9.4 11.2v15.8h-4.8V82.6c0-4.3-1.6-7.8-6.1-7.8-3.2 0-5.6 2.2-6.5 4.9-.2.6-.3 1.4-.3 2.2v15.9h-4.8V78.6zM84 61.6c2.9-.4 6.3-.8 10.1-.8 6.8 0 11.7 1.6 14.9 4.6 3.3 3 5.2 7.3 5.2 13.2 0 6-1.9 10.9-5.3 14.3-3.4 3.4-9.1 5.3-16.3 5.3-3.4 0-6.2-.2-8.6-.4V61.6zm4.8 32.5c1.2.2 3 .3 4.8.3 10.2 0 15.7-5.7 15.7-15.6.1-8.7-4.9-14.2-14.9-14.2-2.5 0-4.3.2-5.6.5v29zM132.1 97.8l-.4-3.3h-.2a9.79 9.79 0 01-8.1 3.9c-5.4 0-8.1-3.8-8.1-7.6 0-6.4 5.7-9.9 15.9-9.8v-.5c0-2.2-.6-6.1-6-6.1-2.5 0-5 .8-6.9 2l-1.1-3.2c2.2-1.4 5.4-2.3 8.7-2.3 8.1 0 10.1 5.5 10.1 10.8v9.9c0 2.3.1 4.5.4 6.3h-4.3zm-.7-13.4c-5.3-.1-11.2.8-11.2 5.9 0 3.1 2.1 4.6 4.5 4.6 3.4 0 5.6-2.2 6.4-4.4.2-.5.3-1 .3-1.5v-4.6zM146.6 63.9v7.6h6.9v3.7h-6.9v14.2c0 3.3.9 5.1 3.6 5.1 1.3 0 2.2-.2 2.8-.3l.2 3.6c-.9.4-2.4.7-4.3.7-2.2 0-4-.7-5.2-2-1.4-1.4-1.9-3.8-1.9-6.9V75.1h-4.1v-3.7h4.1v-6.3l4.8-1.2zM171.4 97.8l-.4-3.3h-.2a9.79 9.79 0 01-8.1 3.9c-5.4 0-8.1-3.8-8.1-7.6 0-6.4 5.7-9.9 15.9-9.8v-.5c0-2.2-.6-6.1-6-6.1-2.5 0-5 .8-6.9 2l-1.1-3.2c2.2-1.4 5.4-2.3 8.7-2.3 8.1 0 10.1 5.5 10.1 10.8v9.9c0 2.3.1 4.5.4 6.3h-4.3zm-.7-13.4c-5.3-.1-11.2.8-11.2 5.9 0 3.1 2.1 4.6 4.5 4.6 3.4 0 5.6-2.2 6.4-4.4.2-.5.3-1 .3-1.5v-4.6z"/></g></g></a></g><a href="https://ourworldindata.org/grapher/stratospheric-ozone-concentration" target="_blank"><text font-size="25.2" x="15" y="35.2" fill="#555"><tspan x="15" y="35.16">Stratospheric ozone concentration</tspan></text></a><text font-size="14.4" x="15" y="53.7" fill="#666"><tspan x="15" y="53.72">Stratospheric ozone concentration in the Southern Hemisphere, measured in Dobson Units (DU). One Dobson Unit is</tspan><tspan x="15" y="69.56">the number of molecules of ozone that would be required to create a layer of pure ozone 0.01 millimeters thick at a</tspan><tspan x="15" y="85.4">temperature of 0 degrees Celsius and a pressure of 1 atmosphere.</tspan></text></g><g class="LineChart"><defs><clipPath id="a"><path d="M65.08 0h830v897.8h-830z"/></clipPath></defs><g class="AxisBoxView"><g class="HorizontalAxis" fill="#666" text-anchor="middle" font-size="16.2"><text x="75.1" y="556.5">1979</text><text x="162.5" y="556.5">1985</text><text x="235.3" y="556.5">1990</text><text x="308.1" y="556.5">1995</text><text x="380.9" y="556.5">2000</text><text x="453.8" y="556.5">2005</text><text x="526.6" y="556.5">2010</text><text x="628.5" y="556.5">2017</text></g><g class="VerticalAxis" fill="#666" dominant-baseline="middle" text-anchor="end" font-size="16.2"><text x="70.08" y="535.3">0 DU</text><text x="70.08" y="440.3">50 DU</text><text x="70.08" y="345.2">100 DU</text><text x="70.08" y="250.2">150 DU</text><text x="70.08" y="155.1">200 DU</text></g><g class="AxisGridLines"><path stroke="#ccc" d="M75.08 535.3h553.47"/><path stroke="#ddd" stroke-dasharray="3,2" d="M75.08 440.3h553.47M75.08 345.2h553.47M75.08 250.2h553.47M75.08 155.1h553.47"/></g></g><g clip-path="url(#a)"><g class="HeightedLegend clickable"><g class="legendMark"><text font-size="13.5" x="633.5" y="269.9" fill="#ca2628"><tspan x="633.55" y="269.85">Mean daily concentration</tspan></text></g><g class="legendMark"><text font-size="13.5" x="633.5" y="290.4" fill="#3360a9"><tspan x="633.55" y="290.35">Minimum daily concentration</tspan></text></g></g><g class="Lines"><g class="key-World_0"><path stroke="#3360a9" stroke-linecap="round" d="M75 167l15 3 14-5 15 47 14 31 15 19 15 38 14-31 15 59 14-101 15 103 14-6 15 33 14-21 15 2 15 59 29-57 14 7 15 25 14-21 15 15 15-4 14-76 15 76 14-21 15-1 14 36 15-46 15 13 14 8 15-42 14 46 15-55 14 15 15 4 14 24 15-24 15-33" fill="none" stroke-width="1.5"/><g fill="#3360a9"><circle cx="75" cy="167" r="2"/><circle cx="90" cy="170" r="2"/><circle cx="104" cy="165" r="2"/><circle cx="119" cy="212" r="2"/><circle cx="133" cy="243" r="2"/><circle cx="148" cy="262" r="2"/><circle cx="163" cy="300" r="2"/><circle cx="177" cy="269" r="2"/><circle cx="192" cy="328" r="2"/><circle cx="206" cy="227" r="2"/><circle cx="221" cy="330" r="2"/><circle cx="235" cy="324" r="2"/><circle cx="250" cy="357" r="2"/><circle cx="264" cy="336" r="2"/><circle cx="279" cy="338" r="2"/><circle cx="294" cy="397" r="2"/><circle cx="323" cy="340" r="2"/><circle cx="337" cy="347" r="2"/><circle cx="352" cy="372" r="2"/><circle cx="366" cy="351" r="2"/><circle cx="381" cy="366" r="2"/><circle cx="396" cy="362" r="2"/><circle cx="410" cy="286" r="2"/><circle cx="425" cy="362" r="2"/><circle cx="439" cy="341" r="2"/><circle cx="454" cy="340" r="2"/><circle cx="468" cy="376" r="2"/><circle cx="483" cy="330" r="2"/><circle cx="498" cy="343" r="2"/><circle cx="512" cy="351" r="2"/><circle cx="527" cy="309" r="2"/><circle cx="541" cy="355" r="2"/><circle cx="556" cy="300" r="2"/><circle cx="570" cy="315" r="2"/><circle cx="585" cy="319" r="2"/><circle cx="599" cy="343" r="2"/><circle cx="614" cy="319" r="2"/><circle cx="629" cy="286" r="2"/></g></g><g class="key-World_1"><path stroke="#ca2628" stroke-linecap="round" d="M75 108l15 41 14-12 15 47 14 23 15 17 15 33 14-22 15 67 14-92 15 84 14 5 15 10 14 9 15 3 15 39 29-31h14l15 19 14-8 15 8 15-4 14-108 15 93 14-28 15 18 14 29 15-34 15 5 14 11 15-39 14 42 15-62 14 12 15 8 14 22 15-12 15-35" fill="none" stroke-width="1.5"/><g fill="#ca2628"><circle cx="75" cy="108" r="2"/><circle cx="90" cy="149" r="2"/><circle cx="104" cy="137" r="2"/><circle cx="119" cy="184" r="2"/><circle cx="133" cy="207" r="2"/><circle cx="148" cy="224" r="2"/><circle cx="163" cy="257" r="2"/><circle cx="177" cy="235" r="2"/><circle cx="192" cy="302" r="2"/><circle cx="206" cy="210" r="2"/><circle cx="221" cy="294" r="2"/><circle cx="235" cy="299" r="2"/><circle cx="250" cy="309" r="2"/><circle cx="264" cy="318" r="2"/><circle cx="279" cy="321" r="2"/><circle cx="294" cy="360" r="2"/><circle cx="323" cy="329" r="2"/><circle cx="337" cy="329" r="2"/><circle cx="352" cy="348" r="2"/><circle cx="366" cy="340" r="2"/><circle cx="381" cy="348" r="2"/><circle cx="396" cy="344" r="2"/><circle cx="410" cy="236" r="2"/><circle cx="425" cy="329" r="2"/><circle cx="439" cy="301" r="2"/><circle cx="454" cy="319" r="2"/><circle cx="468" cy="348" r="2"/><circle cx="483" cy="314" r="2"/><circle cx="498" cy="319" r="2"/><circle cx="512" cy="330" r="2"/><circle cx="527" cy="291" r="2"/><circle cx="541" cy="333" r="2"/><circle cx="556" cy="271" r="2"/><circle cx="570" cy="283" r="2"/><circle cx="585" cy="291" r="2"/><circle cx="599" cy="313" r="2"/><circle cx="614" cy="301" r="2"/><circle cx="629" cy="266" r="2"/></g></g></g></g></g><g class="SourcesFooter" fill="#777"><g class="clickable" fill="#777"><text font-size="12.6" x="15" y="581.6"><tspan x="15" y="581.58">Source: NASA Ozone Watch</tspan></text></g><text font-size="12.6" x="775.4" y="581.6"><tspan x="775.4" y="581.58"><a class="cclogo" href="http://creativecommons.org/licenses/by-sa/4.0/deed.en_US" target="_blank" fill="#777">CC BY-SA</a></tspan></text></g></g></svg>

<svg xmlns="http://www.w3.org/2000/svg" version="1.1" style="font-family: 'Helvetica Neue', Helvetica, Arial, sans-serif; font-size: 18px; background-color: white; text-rendering: optimizeLegibility; -webkit-font-smoothing: antialiased;" width="850" height="600"><g class="ChartTab"><g class="HeaderView"><g opacity="0.8" transform="translate(778, 15) scale(0.27)"><a xmlns:xlink="http://www.w3.org/1999/xlink" xlink:href="https://ourworldindata.org" target="_blank"><g><rect x="0" y="0" fill="#1B2543" width="211.2" height="130.1"/><rect x="0" y="112.2" fill="#E63912" width="211.2" height="17.9"/><g><rect x="1.2" y="12.3" fill="none" width="210.2" height="99.2"/><path fill="#FFFFFF" d="M37.8,32.2c0,12.7-7.7,19.4-17.1,19.4c-9.7,0-16.6-7.5-16.6-18.7c0-11.7,7.3-19.3,17.1-19.3 C31.3,13.7,37.8,21.3,37.8,32.2z M9.2,32.8c0,7.9,4.3,14.9,11.8,14.9c7.5,0,11.8-6.9,11.8-15.3c0-7.3-3.8-14.9-11.8-14.9 C13.1,17.5,9.2,24.8,9.2,32.8z"/><path fill="#FFFFFF" d="M62.7,43.8c0,2.7,0.1,5.1,0.2,7.2h-4.3l-0.3-4.3h-0.1c-1.3,2.1-4,4.9-8.8,4.9c-4.2,0-9.1-2.3-9.1-11.6 V24.6h4.8v14.6c0,5,1.5,8.4,5.9,8.4c3.2,0,5.5-2.2,6.3-4.4c0.3-0.7,0.4-1.6,0.4-2.5V24.6h4.8V43.8z"/><path fill="#FFFFFF" d="M67.3,32.8c0-3.1-0.1-5.8-0.2-8.2h4.2l0.2,5.2h0.2c1.2-3.5,4.1-5.8,7.3-5.8c0.5,0,0.9,0.1,1.4,0.2v4.5 c-0.5-0.1-1-0.2-1.6-0.2c-3.4,0-5.8,2.6-6.5,6.2c-0.1,0.7-0.2,1.4-0.2,2.2V51h-4.8V32.8z"/><path fill="#FFFFFF" d="M95.4,51l-9.4-36.8h5l4.4,18.6c1.1,4.6,2.1,9.2,2.7,12.7h0.1c0.6-3.7,1.8-8,3-12.8l4.9-18.5h5l4.5,18.7 c1,4.4,2,8.7,2.6,12.6h0.1c0.8-4,1.8-8.1,3-12.7l4.9-18.5h4.9L120.6,51h-5L111,31.9c-1.1-4.7-1.9-8.3-2.4-12h-0.1 c-0.7,3.7-1.5,7.3-2.8,12L100.4,51H95.4z"/><path fill="#FFFFFF" d="M154.9,37.6c0,9.8-6.8,14-13.2,14c-7.2,0-12.7-5.2-12.7-13.6c0-8.8,5.8-14,13.1-14 C149.8,24,154.9,29.5,154.9,37.6z M133.9,37.9c0,5.8,3.3,10.1,8,10.1c4.6,0,8-4.3,8-10.3c0-4.5-2.2-10.1-7.9-10.1 C136.3,27.6,133.9,32.8,133.9,37.9z"/><path fill="#FFFFFF" d="M158.2,32.8c0-3.1-0.1-5.8-0.2-8.2h4.2l0.2,5.2h0.2c1.2-3.5,4.1-5.8,7.3-5.8c0.5,0,0.9,0.1,1.4,0.2v4.5 c-0.5-0.1-1-0.2-1.6-0.2c-3.4,0-5.8,2.6-6.5,6.2c-0.1,0.7-0.2,1.4-0.2,2.2V51h-4.8V32.8z"/><path fill="#FFFFFF" d="M173.5,12.3h4.8V51h-4.8V12.3z"/><path fill="#FFFFFF" d="M206.5,12.3v31.9c0,2.3,0.1,5,0.2,6.8h-4.3l-0.2-4.6H202c-1.5,2.9-4.7,5.2-9,5.2 c-6.4,0-11.3-5.4-11.3-13.4c-0.1-8.8,5.4-14.2,11.9-14.2c4,0,6.8,1.9,8,4h0.1V12.3H206.5z M201.7,35.4c0-0.6-0.1-1.4-0.2-2 c-0.7-3.1-3.3-5.6-6.9-5.6c-5,0-7.9,4.4-7.9,10.2c0,5.3,2.6,9.8,7.8,9.8c3.2,0,6.2-2.1,7.1-5.7c0.2-0.7,0.2-1.3,0.2-2.1V35.4z"/><path fill="#FFFFFF" d="M42.8,64c0.1,1.6-1.1,2.9-3.1,2.9c-1.7,0-2.9-1.3-2.9-2.9c0-1.7,1.3-3,3-3C41.7,61,42.8,62.3,42.8,64z M37.4,97.8V71.4h4.8v26.4H37.4z"/><path fill="#FFFFFF" d="M47.5,78.6c0-2.7-0.1-5-0.2-7.1h4.3l0.3,4.4h0.1c1.3-2.5,4.4-5,8.8-5c3.7,0,9.4,2.2,9.4,11.2v15.8h-4.8 V82.6c0-4.3-1.6-7.8-6.1-7.8c-3.2,0-5.6,2.2-6.5,4.9c-0.2,0.6-0.3,1.4-0.3,2.2v15.9h-4.8V78.6z"/><path fill="#FFFFFF" d="M84,61.6c2.9-0.4,6.3-0.8,10.1-0.8c6.8,0,11.7,1.6,14.9,4.6c3.3,3,5.2,7.3,5.2,13.2c0,6-1.9,10.9-5.3,14.3 c-3.4,3.4-9.1,5.3-16.3,5.3c-3.4,0-6.2-0.2-8.6-0.4V61.6z M88.8,94.1c1.2,0.2,3,0.3,4.8,0.3c10.2,0,15.7-5.7,15.7-15.6 c0.1-8.7-4.9-14.2-14.9-14.2c-2.5,0-4.3,0.2-5.6,0.5V94.1z"/><path fill="#FFFFFF" d="M132.1,97.8l-0.4-3.3h-0.2c-1.5,2.1-4.3,3.9-8.1,3.9c-5.4,0-8.1-3.8-8.1-7.6c0-6.4,5.7-9.9,15.9-9.8v-0.5 c0-2.2-0.6-6.1-6-6.1c-2.5,0-5,0.8-6.9,2l-1.1-3.2c2.2-1.4,5.4-2.3,8.7-2.3c8.1,0,10.1,5.5,10.1,10.8v9.9c0,2.3,0.1,4.5,0.4,6.3 H132.1z M131.4,84.4c-5.3-0.1-11.2,0.8-11.2,5.9c0,3.1,2.1,4.6,4.5,4.6c3.4,0,5.6-2.2,6.4-4.4c0.2-0.5,0.3-1,0.3-1.5V84.4z"/><path fill="#FFFFFF" d="M146.6,63.9v7.6h6.9v3.7h-6.9v14.2c0,3.3,0.9,5.1,3.6,5.1c1.3,0,2.2-0.2,2.8-0.3l0.2,3.6 c-0.9,0.4-2.4,0.7-4.3,0.7c-2.2,0-4-0.7-5.2-2c-1.4-1.4-1.9-3.8-1.9-6.9V75.1h-4.1v-3.7h4.1v-6.3L146.6,63.9z"/><path fill="#FFFFFF" d="M171.4,97.8l-0.4-3.3h-0.2c-1.5,2.1-4.3,3.9-8.1,3.9c-5.4,0-8.1-3.8-8.1-7.6c0-6.4,5.7-9.9,15.9-9.8v-0.5 c0-2.2-0.6-6.1-6-6.1c-2.5,0-5,0.8-6.9,2l-1.1-3.2c2.2-1.4,5.4-2.3,8.7-2.3c8.1,0,10.1,5.5,10.1,10.8v9.9c0,2.3,0.1,4.5,0.4,6.3 H171.4z M170.7,84.4c-5.3-0.1-11.2,0.8-11.2,5.9c0,3.1,2.1,4.6,4.5,4.6c3.4,0,5.6-2.2,6.4-4.4c0.2-0.5,0.3-1,0.3-1.5V84.4z"/></g></g></a></g><a href="https://ourworldindata.org/grapher/stratospheric-ozone-concentration" target="_blank"><text font-size="25.20" x="15.0" y="35.2" fill="#555"><tspan x="15" y="35.160000000000004">Stratospheric ozone concentration</tspan></text></a><text font-size="14.40" x="15.0" y="53.7" fill="#666"><tspan x="15" y="53.72">Stratospheric ozone concentration in the Southern Hemisphere, measured in Dobson Units (DU). One Dobson Unit is</tspan><tspan x="15" y="69.56">the number of molecules of ozone that would be required to create a layer of pure ozone 0.01 millimeters thick at a</tspan><tspan x="15" y="85.4">temperature of 0 degrees Celsius and a pressure of 1 atmosphere.</tspan></text></g><g class="LineChart"><defs><clipPath id="boundsClip-69"><rect x="65.08" y="0" width="830" height="897.8"></rect></clipPath></defs><g class="AxisBoxView"><g class="HorizontalAxis"><text x="75.1" y="556.5" fill="#666" text-anchor="middle" font-size="16.2">1979</text><text x="162.5" y="556.5" fill="#666" text-anchor="middle" font-size="16.2">1985</text><text x="235.3" y="556.5" fill="#666" text-anchor="middle" font-size="16.2">1990</text><text x="308.1" y="556.5" fill="#666" text-anchor="middle" font-size="16.2">1995</text><text x="380.9" y="556.5" fill="#666" text-anchor="middle" font-size="16.2">2000</text><text x="453.8" y="556.5" fill="#666" text-anchor="middle" font-size="16.2">2005</text><text x="526.6" y="556.5" fill="#666" text-anchor="middle" font-size="16.2">2010</text><text x="628.5" y="556.5" fill="#666" text-anchor="middle" font-size="16.2">2017</text></g><g class="VerticalAxis"><text x="70.08" y="535.3" fill="#666" dominant-baseline="middle" text-anchor="end" font-size="16.2">0 DU</text><text x="70.08" y="440.3" fill="#666" dominant-baseline="middle" text-anchor="end" font-size="16.2">50 DU</text><text x="70.08" y="345.2" fill="#666" dominant-baseline="middle" text-anchor="end" font-size="16.2">100 DU</text><text x="70.08" y="250.2" fill="#666" dominant-baseline="middle" text-anchor="end" font-size="16.2">150 DU</text><text x="70.08" y="155.1" fill="#666" dominant-baseline="middle" text-anchor="end" font-size="16.2">200 DU</text></g><g class="AxisGridLines"><line x1="75.08" y1="535.3" x2="628.55" y2="535.3" stroke="#ccc"></line><line x1="75.08" y1="440.3" x2="628.55" y2="440.3" stroke="#ddd" stroke-dasharray="3,2"></line><line x1="75.08" y1="345.2" x2="628.55" y2="345.2" stroke="#ddd" stroke-dasharray="3,2"></line><line x1="75.08" y1="250.2" x2="628.55" y2="250.2" stroke="#ddd" stroke-dasharray="3,2"></line><line x1="75.08" y1="155.1" x2="628.55" y2="155.1" stroke="#ddd" stroke-dasharray="3,2"></line></g></g><g clip-path="url(#boundsClip-69)"><g class="HeightedLegend clickable"><g class="legendMark"><rect x="628.55" y="259.05" width="185.66" height="13.5" fill="#fff" opacity="0"></rect><text font-size="13.50" x="633.5" y="269.9" fill="#ca2628"><tspan x="633.55" y="269.85">Mean daily concentration</tspan></text></g><g class="legendMark"><rect x="628.55" y="279.55" width="206.45000000000002" height="13.5" fill="#fff" opacity="0"></rect><text font-size="13.50" x="633.5" y="290.4" fill="#3360a9"><tspan x="633.55" y="290.35">Minimum daily concentration</tspan></text></g></g><g class="Lines"><rect x="75" y="108" width="553" height="428" fill="rgba(255,255,255,0)" opacity="0"></rect><g class="key-World_0"><path stroke="#3360a9" stroke-linecap="round" d="M75 167L90 170L104 165L119 212L133 243L148 262L163 300L177 269L192 328L206 227L221 330L235 324L250 357L264 336L279 338L294 397L323 340L337 347L352 372L366 351L381 366L396 362L410 286L425 362L439 341L454 340L468 376L483 330L498 343L512 351L527 309L541 355L556 300L570 315L585 319L599 343L614 319L629 286" fill="none" stroke-width="1.5"></path><g fill="#3360a9"><circle cx="75" cy="167" r="2"></circle><circle cx="90" cy="170" r="2"></circle><circle cx="104" cy="165" r="2"></circle><circle cx="119" cy="212" r="2"></circle><circle cx="133" cy="243" r="2"></circle><circle cx="148" cy="262" r="2"></circle><circle cx="163" cy="300" r="2"></circle><circle cx="177" cy="269" r="2"></circle><circle cx="192" cy="328" r="2"></circle><circle cx="206" cy="227" r="2"></circle><circle cx="221" cy="330" r="2"></circle><circle cx="235" cy="324" r="2"></circle><circle cx="250" cy="357" r="2"></circle><circle cx="264" cy="336" r="2"></circle><circle cx="279" cy="338" r="2"></circle><circle cx="294" cy="397" r="2"></circle><circle cx="323" cy="340" r="2"></circle><circle cx="337" cy="347" r="2"></circle><circle cx="352" cy="372" r="2"></circle><circle cx="366" cy="351" r="2"></circle><circle cx="381" cy="366" r="2"></circle><circle cx="396" cy="362" r="2"></circle><circle cx="410" cy="286" r="2"></circle><circle cx="425" cy="362" r="2"></circle><circle cx="439" cy="341" r="2"></circle><circle cx="454" cy="340" r="2"></circle><circle cx="468" cy="376" r="2"></circle><circle cx="483" cy="330" r="2"></circle><circle cx="498" cy="343" r="2"></circle><circle cx="512" cy="351" r="2"></circle><circle cx="527" cy="309" r="2"></circle><circle cx="541" cy="355" r="2"></circle><circle cx="556" cy="300" r="2"></circle><circle cx="570" cy="315" r="2"></circle><circle cx="585" cy="319" r="2"></circle><circle cx="599" cy="343" r="2"></circle><circle cx="614" cy="319" r="2"></circle><circle cx="629" cy="286" r="2"></circle></g></g><g class="key-World_1"><path stroke="#ca2628" stroke-linecap="round" d="M75 108L90 149L104 137L119 184L133 207L148 224L163 257L177 235L192 302L206 210L221 294L235 299L250 309L264 318L279 321L294 360L323 329L337 329L352 348L366 340L381 348L396 344L410 236L425 329L439 301L454 319L468 348L483 314L498 319L512 330L527 291L541 333L556 271L570 283L585 291L599 313L614 301L629 266" fill="none" stroke-width="1.5"></path><g fill="#ca2628"><circle cx="75" cy="108" r="2"></circle><circle cx="90" cy="149" r="2"></circle><circle cx="104" cy="137" r="2"></circle><circle cx="119" cy="184" r="2"></circle><circle cx="133" cy="207" r="2"></circle><circle cx="148" cy="224" r="2"></circle><circle cx="163" cy="257" r="2"></circle><circle cx="177" cy="235" r="2"></circle><circle cx="192" cy="302" r="2"></circle><circle cx="206" cy="210" r="2"></circle><circle cx="221" cy="294" r="2"></circle><circle cx="235" cy="299" r="2"></circle><circle cx="250" cy="309" r="2"></circle><circle cx="264" cy="318" r="2"></circle><circle cx="279" cy="321" r="2"></circle><circle cx="294" cy="360" r="2"></circle><circle cx="323" cy="329" r="2"></circle><circle cx="337" cy="329" r="2"></circle><circle cx="352" cy="348" r="2"></circle><circle cx="366" cy="340" r="2"></circle><circle cx="381" cy="348" r="2"></circle><circle cx="396" cy="344" r="2"></circle><circle cx="410" cy="236" r="2"></circle><circle cx="425" cy="329" r="2"></circle><circle cx="439" cy="301" r="2"></circle><circle cx="454" cy="319" r="2"></circle><circle cx="468" cy="348" r="2"></circle><circle cx="483" cy="314" r="2"></circle><circle cx="498" cy="319" r="2"></circle><circle cx="512" cy="330" r="2"></circle><circle cx="527" cy="291" r="2"></circle><circle cx="541" cy="333" r="2"></circle><circle cx="556" cy="271" r="2"></circle><circle cx="570" cy="283" r="2"></circle><circle cx="585" cy="291" r="2"></circle><circle cx="599" cy="313" r="2"></circle><circle cx="614" cy="301" r="2"></circle><circle cx="629" cy="266" r="2"></circle></g></g></g></g></g><g style="fill: #777;" class="SourcesFooter"><g style="fill: #777;" class="clickable"><text font-size="12.60" x="15.0" y="581.6"><tspan x="15" y="581.58">Source: NASA Ozone Watch</tspan></text></g><text font-size="12.60" x="775.4" y="581.6"><tspan x="775.402" y="581.58"><a style="fill: #777;" class="cclogo" href="http://creativecommons.org/licenses/by-sa/4.0/deed.en_US" target="_blank">CC BY-SA</a></tspan></text></g></g></svg>
